X:1
T:Canon in D
T:Canon in D major
T:Johann Pachelbel 
T:Trombone/Cello/Euphonium/ Baritone/Bassoon 
T:Arr. Mahadevan Seetharaman
C:Johann Pachelbel
L:1/8
Q:1/4=70
M:4/4
K:D
V:1 bass nm="Trombone" snm="Tbn."
V:1
!p! F4 E4 | D4 C4 | B,4 A,4 | B,4 C4 | D4 C4 | B,4 A,4 | G,4 F,4 | G,4 E,4 |: D,2 F,2 A,2 G,2 | %9
 F,2 D,2 F,2 E,2 | D,2 B,,2 D,2 A,2 | G,2 B,2 A,2 G,2 | F,2 D,2 E,2 C2 | D2 F2 A2 A,2 | %14
 B,2 G,2 A,2 F,2 | D,2 D2 D3 C | DCDD, C,A,E,F, | D,DCB, CFAB | GFEG FEDC | B,A,G,F, E,G,F,E, | %20
 D,E,F,G, A,E,A,G, | F,B,A,G, A,G,F,E, | D,B,,B,C DCB,A, | G,F,E,B, A,B,A,A, | %24
 AF/G/ AF/G/ A/A,/B,/C/ D/E/F/G/ | FD/E/ FF,/G,/ A,/B,/A,/G,/ A,/F,/G,/A,/ | %26
 G,B,/A,/ G,F,/E,/ F,/E,/D,/E,/ F,/G,/A,/B,/ | G,B,/A,/ B,C/D/ A,/B,/C/D/ E/F/G/A/ | %28
 AF/G/ AF/G/ A/A,/B,/C/ D/E/F/G/ | FD/E/ FF,/G,/ A,/B,/A,/G,/ A,/F,/G,/A,/ | %30
 G,B,/A,/ G,F,/E,/ F,/E,/D,/E,/ F,/G,/A,/B,/ | G,B,/A,/ B,C/D/ A,/B,/C/D/ E/F/G/A/ | %32
 FD/E/ FE/D/ E/C/D/E/ F/E/D/C/ | DB,/C/ DD,/E,/ F,/G,/F,/E,/ F,/D/C/D/ | %34
 B,D/C/ B,A,/G,/ A,/G,/F,/G,/ A,/B,/C/D/ | B,D/C/ DC/B,/ C/D/E/D/ C/D/B,/C/ | %36
 DD,/E,/ F,D, C,C/D/ EC | B,B,,/C,/ D,B,, C,A,/G,/ F,E, | D,G,/F,/ F,G, F,D,/E,/ F,A, | %39
 G,B,/A,/ G,F, E,A,/G,/ F,E, | F,D/C/ DF, A,A,/B,/ CG, | F,D/E/ FD FF/E/ DC | %42
 B,B,/A,/ B,C DF/E/ DF | GD/C/ B,B, A,E,A,A, :| F,3 F FGFE | D3 D DEDC | B,4 D4 | D=CB,=C A,3 A, | %48
 A,3 A ABAG | F3 F FGFE | D=CB,=C A,3 A, | G,2 D2 C3 C | D2 z4 [Cc-]2 | [Cc]2 B4 A2- | A2 G4 F2- | %55
 F3 E E4 | F2 F4 E2- | E2 D4 C2- | C2[K:bass] B,4 A,2- | A,2 B,2 E,2 C2 | !fermata!D4 z2 z2 |] %61

